**kern	**kern
*staff2	*staff1
*clefF4	*clefG2
*k[b-e-]	*k[b-e-]
*M4/4	*M4/4
=77	=77
*^	*
2r	[1FF	12FL
.	.	12A
.	.	12cJ
.	.	12fL
.	.	12a
.	.	12ccJ
4r	.	12ff'L
.	.	12f
.	.	12aJ
(4F	.	12ff'L
.	.	12f
.	.	12aJ
=78	=78	=78
4E	1FF]	12ff'L
.	.	12g
.	.	12b-J
4E-	.	12ff'L
.	.	12a
.	.	12ccJ
4D	.	12ff'L
.	.	12b-
.	.	12ddJ
4C	.	12ff'L
.	.	12a
.	.	12ee-J
=79	=79	=79
4BB-)	4BB-	12ff'L
.	.	12b-
.	.	12ddJ
4r	4r	12bb-'L
.	.	12dd
.	.	12ffJ
2r	2r	12ddd'L
.	.	12ff
.	.	12bb-J
.	.	12fff'L
.	.	12bb-
.	.	12dddJ
*v	*v	*
=80	=80
4r	12fffL
.	12bb-
.	12dddJ
4d'	12ffL
.	12ddd
.	12bb-J
4e-'	12ggL
.	12ccc
.	12bb-J
4f'	12ffL
.	12ccc
.	12aaJ
=81	=81
4B-	12dddL
.	12ff
.	12bb-J
4r	12ddL
.	12ff
.	12b-J
2r	12ddL
.	12f
.	12b-J
.	12ffL
.	12b-
.	12ddJ
=82	=82
4r	12ffL
.	12b-
.	12ddJ
4D'	12fL
.	12dd
.	12b-J
4E-'	12gL
.	12cc
.	12b-J
4F'	12fL
.	12cc
.	12aJ
=83	=83
4BB-	12b-L
.	12f
.	12dJ
4r	12B-L
.	12F
.	12DJ
4BBB- 4BB-	2r
4r	.
=	=
*-	*-
